X:1
T:Title
%%score { 1 | ( 2 3 ) }
L:1/8
M:6/8
K:Bb
V:1 treble nm="Grand Piano"
V:2 bass 
V:3 bass 
V:1
 z3 z2[Q:1/4=100] [DF] | [DB]2 [DB] [DB][EA][B,FB] | c3 G2 G | F2 F AGA |[M:5/8] [DB]-[DB]- [DB]3 | %5
[M:1/8] [DF] |[M:3/4] [DB]2 [DB][DB] [EA][B,FB] | c3 G2 G | F2 FA GA |[M:5/8] [DB]-[DB]- [DB]3 | %10
[M:1/8] [Fd] |[M:3/4] [Ge][Fd] [Ec][DB] [EA][FB] | [FA]3 [EG]2 [EG] | [Ge]2 [Gd] [Gc]2 [GB] | %14
[M:5/8] [FA]-[FA]- [FA]3 |[M:1/8] [EF] |[M:3/4] [DB]2 [DB][DB] [EA][B,FB] | [B,FA]3 G2 G | %18
 F2 FA GA |[M:5/8] [DB]-[DB]- [DB]3 |[M:1/8] F |[M:3/4] FG A[DB] [EA][FB] | [FA]3 G2 c | B3 A2 e | %24
 d3 B2 F | FG AB cd | [Ge]3 G2 G | Fc BA GA |[M:5/8] [DB]-[DB]- [DB]3 |] %29
V:2
 z3 z2 [B,,B,] | z3 .F,3 | [E,G,E]3 [E,B,E]2 [E,B,E] | [F,B,D]2 [F,B,D] [F,CE]2 [F,E] | %4
[M:5/8] [B,,F,]-[B,,F,]- [B,,F,]3 |[M:1/8] [B,,B,] |[M:3/4] z2 z .F,3 | [E,G,E]3 [E,B,E]2 [E,B,E] | %8
 [F,B,D]2 [F,B,D] [F,CE]2 [F,E] |[M:5/8] [B,,F,]-[B,,F,]- [B,,F,]3 |[M:1/8] [B,,B,] | %11
[M:3/4] [B,,B,]2 [B,,B,][B,,B,] [C,F,][D,B,] | [E,B,]3 [E,B,]2 [E,B,] | %13
 [C,C]2 [D,=B,] [E,C]2 [=E,C] |[M:5/8] [F,C]-[F,C]- [F,C]3 |[M:1/8] [F,C] |[M:3/4] z2 z .F,3 | %17
 E,3 [E,B,E]2 [E,B,E] | [F,B,D]2 [F,B,D] [F,CE]2 [F,E] |[M:5/8] [B,,F,]-[B,,F,]- [B,,F,]3 | %20
[M:1/8] [F,A,] |[M:3/4] [F,A,][F,B,=E] [F,C_E][B,,B,] [C,F,][D,B,] | [E,B,]3 [E,B,E]2 [E,G,E] | %23
 [F,D]3 [F,CE]2[K:treble] [F,A,G] | [B,F]3[K:bass] [B,D]2 [D,B,] | %25
 [F,A,][F,B,=E] [F,C_E][K:treble][B,D] [B,E][B,F] | [E,B,]3 [E,B,E]2 [E,B,E] | %27
 [F,B,D][F,A,E] [F,B,D][F,CE] [F,CE][F,CE] |[M:5/8] [B,,B,]-[B,,B,]- [B,,B,]3 |] %29
V:3
 x6 | [B,,F,]2 [B,,F,] B,,C,D, | x6 | x6 |[M:5/8] x5 |[M:1/8] x |[M:3/4] [B,,F,]2 [B,,F,]B,, C,D, | %7
 x6 | x6 |[M:5/8] x5 |[M:1/8] x |[M:3/4] x6 | x6 | x6 |[M:5/8] x5 |[M:1/8] x | %16
[M:3/4] [B,,B,]2 [B,,F,]B,, C,D, | x6 | x6 |[M:5/8] x5 |[M:1/8] x |[M:3/4] x6 | x6 | %23
 x5[K:treble] x | x3[K:bass] x3 | x3[K:treble] x3 | x6 | x6 |[M:5/8] x5 |] %29

